Icons/com_motorola_camera-old.svg

<svg viewBox="0 0 48 48" xmlns:xlink="http://www.w3.org/1999/xlink">
 <defs>
  <linearGradient id="0">
   <stop stop-opacity="0"/>
   <stop offset="1"/>
  </linearGradient>
  <linearGradient xlink:href="#0" id="1" gradientUnits="userSpaceOnUse" gradientTransform="translate(4e-7,-48)" y1="47" x2="0" y2="1"/>
  <clipPath id="2">
   <g transform="translate(0,-1004.3622)">
    <rect rx="4" y="1005.36" x="1" height="46" width="46" fill="#1890d0"/>
   </g>
  </clipPath>
  <clipPath id="3">
   <g transform="translate(0,-1004.3622)">
    <rect rx="4" y="1005.36" x="1" height="46" width="46" fill="#1890d0"/>
   </g>
  </clipPath>
 </defs>
 <g>
  <g transform="translate(0,-1004.3622)">
   <path d="m 5,1006.3622 c -2.216,0 -4,1.784 -4,4 l 0,37.25 c 0,2.216 1.784,4 4,4 l 38,0 c 2.216,0 4,-1.784 4,-4 l 0,-37.25 c 0,-2.216 -1.784,-4 -4,-4 l -38,0 z m -4,41.5 0,0.5 c 0,2.216 1.784,4 4,4 l 38,0 c 2.216,0 4,-1.784 4,-4 l 0,-0.5 c 0,2.216 -1.784,4 -4,4 l -38,0 c -2.216,0 -4,-1.784 -4,-4 z" opacity="0.02"/>
   <path d="m 1,1047.6122 0,0.25 c 0,2.216 1.784,4 4,4 l 38,0 c 2.216,0 4,-1.784 4,-4 l 0,-0.25 c 0,2.216 -1.784,4 -4,4 l -38,0 c -2.216,0 -4,-1.784 -4,-4 z" opacity="0.05"/>
   <rect width="46" height="46" x="1" y="1005.61" rx="4" opacity="0.1"/>
  </g>
 </g>
 <g>
  <g transform="translate(0,-1004.3622)">
   <rect rx="4" y="1005.36" x="1" height="46" width="46" fill="#714b4b"/>
  </g>
 </g>
 <g>
  <rect transform="scale(1,-1)" width="46" height="46" x="1" y="-46.998" rx="4" opacity="0.1" fill="url(#1)"/>
 </g>
 <g>
  <g clip-path="url(#2)">
   <g opacity="0.1">
    <g>
     <path d="M 12.804688 15 C 12.367188 15.046875 11.996094 15.457031 12 15.898438 L 12 32.101562 C 12 32.570312 12.429688 33 12.898438 33 L 35.101562 33 C 35.570312 33 36 32.570312 36 32.101562 L 36 15.898438 C 36 15.429688 35.570312 15 35.101562 15 Z M 12.804688 15 "/>
     <path d="M 15 13 L 19 13 C 19.550781 13 20 13.449219 20 14 L 20 16 C 20 16.554688 19.550781 17 19 17 L 15 17 C 14.445312 17 14 16.554688 14 16 L 14 14 C 14 13.449219 14.445312 13 15 13 Z M 15 13 "/>
     <path d="M 32.664062 17 L 33.328125 17 C 33.695312 17 33.996094 17.300781 33.996094 17.667969 L 33.996094 18.332031 C 33.996094 18.699219 33.695312 19 33.328125 19 L 32.664062 19 C 32.292969 19 31.996094 18.699219 31.996094 18.332031 L 31.996094 17.667969 C 31.996094 17.300781 32.292969 17 32.664062 17 Z M 32.664062 17 "/>
     <path d="M 28 24 C 28 27.3125 25.3125 30 22 30 C 18.683594 30 16 27.3125 16 24 C 16 20.6875 18.683594 18 22 18 C 25.3125 18 28 20.6875 28 24 Z M 28 24 "/>
     <path d="M 25 24 C 25 25.65625 23.65625 27 22 27 C 20.34375 27 19 25.65625 19 24 C 19 22.34375 20.34375 21 22 21 C 23.65625 21 25 22.34375 25 24 Z M 25 24 "/>
    </g>
   </g>
  </g>
 </g>
 <g>
  <g clip-path="url(#3)">
   <g transform="translate(0,-1)">
    <g>
     <path d="M 12.804688 15 C 12.367188 15.046875 11.996094 15.457031 12 15.898438 L 12 32.101562 C 12 32.570312 12.429688 33 12.898438 33 L 35.101562 33 C 35.570312 33 36 32.570312 36 32.101562 L 36 15.898438 C 36 15.429688 35.570312 15 35.101562 15 Z M 12.804688 15 " fill="#cccccc"/>
     <path d="M 15 13 L 19 13 C 19.550781 13 20 13.449219 20 14 L 20 16 C 20 16.554688 19.550781 17 19 17 L 15 17 C 14.445312 17 14 16.554688 14 16 L 14 14 C 14 13.449219 14.445312 13 15 13 Z M 15 13 " fill="#cccccc"/>
     <path d="M 32.664062 17 L 33.328125 17 C 33.695312 17 33.996094 17.300781 33.996094 17.667969 L 33.996094 18.332031 C 33.996094 18.699219 33.695312 19 33.328125 19 L 32.664062 19 C 32.292969 19 31.996094 18.699219 31.996094 18.332031 L 31.996094 17.667969 C 31.996094 17.300781 32.292969 17 32.664062 17 Z M 32.664062 17 " fill="#e32626"/>
     <path d="M 28 24 C 28 27.3125 25.3125 30 22 30 C 18.683594 30 16 27.3125 16 24 C 16 20.6875 18.683594 18 22 18 C 25.3125 18 28 20.6875 28 24 Z M 28 24 " fill="#f9f9f9"/>
     <path d="M 25 24 C 25 25.65625 23.65625 27 22 27 C 20.34375 27 19 25.65625 19 24 C 19 22.34375 20.34375 21 22 21 C 23.65625 21 25 22.34375 25 24 Z M 25 24 " fill="#868686"/>
    </g>
   </g>
  </g>
 </g>
 <g>
  <g transform="translate(0,-1004.3622)">
   <path d="m 1,1043.3622 0,4 c 0,2.216 1.784,4 4,4 l 38,0 c 2.216,0 4,-1.784 4,-4 l 0,-4 c 0,2.216 -1.784,4 -4,4 l -38,0 c -2.216,0 -4,-1.784 -4,-4 z" opacity="0.1"/>
  </g>
 </g>
</svg>

<svg viewBox="0 0 48 48"><defs><linearGradient id="linearGradient3764" x1="1" x2="47" gradientUnits="userSpaceOnUse" gradientTransform="translate(-48.000001,0.00221467)"><stop stop-color="#654343" stop-opacity="1"/><stop offset="1" stop-color="#714b4b" stop-opacity="1"/></linearGradient><clipPath id="clipPath-822404384"><g transform="translate(0,-1004.3622)"><rect rx="4" y="1005.36" x="1" height="46" width="46" fill="#1890d0"/></g></clipPath><clipPath id="clipPath-835693639"><g transform="translate(0,-1004.3622)"><rect rx="4" y="1005.36" x="1" height="46" width="46" fill="#1890d0"/></g></clipPath></defs><g><path d="m 1 43 l 0 0.25 c 0 2.216 1.784 4 4 4 l 38 0 c 2.216 0 4 -1.784 4 -4 l 0 -0.25 c 0 2.216 -1.784 4 -4 4 l -38 0 c -2.216 0 -4 -1.784 -4 -4 z m 0 0.5 l 0 0.5 c 0 2.216 1.784 4 4 4 l 38 0 c 2.216 0 4 -1.784 4 -4 l 0 -0.5 c 0 2.216 -1.784 4 -4 4 l -38 0 c -2.216 0 -4 -1.784 -4 -4 z" opacity="0.02"/><path d="m 1 43.25 l 0 0.25 c 0 2.216 1.784 4 4 4 l 38 0 c 2.216 0 4 -1.784 4 -4 l 0 -0.25 c 0 2.216 -1.784 4 -4 4 l -38 0 c -2.216 0 -4 -1.784 -4 -4 z" opacity="0.05"/><path d="m 1 43 l 0 0.25 c 0 2.216 1.784 4 4 4 l 38 0 c 2.216 0 4 -1.784 4 -4 l 0 -0.25 c 0 2.216 -1.784 4 -4 4 l -38 0 c -2.216 0 -4 -1.784 -4 -4 z" opacity="0.1"/></g><g><rect width="46" height="46" x="-47" y="1" rx="4" transform="matrix(0,-1,1,0,0,0)" fill="url(#linearGradient3764)" fill-opacity="1"/></g><g><g clip-path="url(#clipPath-822404384)"><g opacity="0.1"><!-- color: #714b4b --><g><path d="m 12.805 15 c -0.438 0.047 -0.809 0.457 -0.805 0.898 l 0 16.203 c 0 0.469 0.43 0.898 0.898 0.898 l 22.2 0 c 0.469 0 0.898 -0.43 0.898 -0.898 l 0 -16.203 c 0 -0.469 -0.43 -0.898 -0.898 -0.898 m -22.297 0" fill="#000"/><path d="m 15 13 l 4 0 c 0.551 0 1 0.449 1 1 l 0 2 c 0 0.555 -0.449 1 -1 1 l -4 0 c -0.555 0 -1 -0.445 -1 -1 l 0 -2 c 0 -0.551 0.445 -1 1 -1 m 0 0" fill="#000"/><path d="m 32.664 17 l 0.664 0 c 0.367 0 0.668 0.301 0.668 0.668 l 0 0.664 c 0 0.367 -0.301 0.668 -0.668 0.668 l -0.664 0 c -0.371 0 -0.668 -0.301 -0.668 -0.668 l 0 -0.664 c 0 -0.367 0.297 -0.668 0.668 -0.668 m 0 0" fill="#000"/><path d="m 28 24 c 0 3.313 -2.688 6 -6 6 c -3.316 0 -6 -2.688 -6 -6 c 0 -3.313 2.684 -6 6 -6 c 3.313 0 6 2.688 6 6 m 0 0" fill="#000"/><path d="m 25 24 c 0 1.656 -1.344 3 -3 3 c -1.656 0 -3 -1.344 -3 -3 c 0 -1.656 1.344 -3 3 -3 c 1.656 0 3 1.344 3 3 m 0 0" fill="#000"/></g></g></g></g><g><g clip-path="url(#clipPath-835693639)"><g transform="translate(0,-1)"><!-- color: #714b4b --><g><path d="m 12.805 15 c -0.438 0.047 -0.809 0.457 -0.805 0.898 l 0 16.203 c 0 0.469 0.43 0.898 0.898 0.898 l 22.2 0 c 0.469 0 0.898 -0.43 0.898 -0.898 l 0 -16.203 c 0 -0.469 -0.43 -0.898 -0.898 -0.898 m -22.297 0" fill="#ccc"/><path d="m 15 13 l 4 0 c 0.551 0 1 0.449 1 1 l 0 2 c 0 0.555 -0.449 1 -1 1 l -4 0 c -0.555 0 -1 -0.445 -1 -1 l 0 -2 c 0 -0.551 0.445 -1 1 -1 m 0 0" fill="#ccc"/><path d="m 32.664 17 l 0.664 0 c 0.367 0 0.668 0.301 0.668 0.668 l 0 0.664 c 0 0.367 -0.301 0.668 -0.668 0.668 l -0.664 0 c -0.371 0 -0.668 -0.301 -0.668 -0.668 l 0 -0.664 c 0 -0.367 0.297 -0.668 0.668 -0.668 m 0 0" fill="#e32626"/><path d="m 28 24 c 0 3.313 -2.688 6 -6 6 c -3.316 0 -6 -2.688 -6 -6 c 0 -3.313 2.684 -6 6 -6 c 3.313 0 6 2.688 6 6 m 0 0" fill="#f9f9f9"/><path d="m 25 24 c 0 1.656 -1.344 3 -3 3 c -1.656 0 -3 -1.344 -3 -3 c 0 -1.656 1.344 -3 3 -3 c 1.656 0 3 1.344 3 3 m 0 0" fill="#868686"/></g></g></g></g><g><g transform="translate(0,-1004.3622)"><path d="m 1 1043.36 0 4 c 0 2.216 1.784 4 4 4 l 38 0 c 2.216 0 4 -1.784 4 -4 l 0 -4 c 0 2.216 -1.784 4 -4 4 l -38 0 c -2.216 0 -4 -1.784 -4 -4 z" opacity="0.1"/></g></g></svg>
